X:19
T:Sommarvals (Summer Waltz)
M:3/4
L:1/8
R:waltz
K:Gmaj
|: d2c2 | B3 AG2 | A3 GF2 | G6 | E3 FE2 | D2 G2 A2 | c4 B2 | B2 A2 G2 | A2 d3 c |
B3 AG2 | A3 GF2 | G6 | E3 FE2 | D2 E2 G2 | G4 F2 | G6 | G2 :|
|: F2 G2 | A3 AA2 | A2 F2 D2 | c6 | B3 AG2 | E2A Bc2 | d3 cBA | G2F2G2 | A2B3A |
G3AG2 | F3GF2 | E3FE2 | D2G2A2 | B3AG2 | A2d3F | G6 | G2 :|
